images/icons/youtube-music.svg

<svg fill="none" height="24" viewBox="0 0 24 24" width="24" xmlns="http://www.w3.org/2000/svg" xmlns:xlink="http://www.w3.org/1999/xlink"><clipPath id="a"><path d="m0 0h24v24h-24z"/></clipPath><g clip-path="url(#a)"><path d="m12 24c6.6274 0 12-5.3726 12-12 0-6.62742-5.3726-12-12-12-6.62742 0-12 5.37258-12 12 0 6.6274 5.37258 12 12 12z" fill="#f00"/><g fill="#fff"><path d="m12 6.27275c3.15 0 5.7273 2.56364 5.7273 5.72725 0 3.1637-2.5636 5.7273-5.7273 5.7273-3.16361 0-5.72725-2.5636-5.72725-5.7273 0-3.16361 2.57727-5.72725 5.72725-5.72725zm0-.54546c-3.46361 0-6.27271 2.8091-6.27271 6.27271 0 3.4637 2.8091 6.2727 6.27271 6.2727 3.4637 0 6.2727-2.809 6.2727-6.2727 0-3.46361-2.809-6.27271-6.2727-6.27271z"/><path d="m9.81824 15.1363 5.31816-3.2728-5.31816-2.99997z"/></g></g></svg>

<svg width="24" height="24" viewBox="0 0 24 24" fill="none" xmlns="http://www.w3.org/2000/svg">
<g clip-path="url(#clip0_1432_8831)">
<path d="M12 24C18.6274 24 24 18.6274 24 12C24 5.37258 18.6274 0 12 0C5.37258 0 0 5.37258 0 12C0 18.6274 5.37258 24 12 24Z" fill="#FF0000"/>
<path d="M12 6.27275C15.15 6.27275 17.7273 8.83639 17.7273 12C17.7273 15.1637 15.1637 17.7273 12 17.7273C8.83639 17.7273 6.27275 15.1637 6.27275 12C6.27275 8.83639 8.85002 6.27275 12 6.27275ZM12 5.72729C8.53639 5.72729 5.72729 8.53639 5.72729 12C5.72729 15.4637 8.53639 18.2727 12 18.2727C15.4637 18.2727 18.2727 15.4637 18.2727 12C18.2727 8.53639 15.4637 5.72729 12 5.72729Z" fill="white"/>
<path d="M9.81824 15.1363L15.1364 11.8635L9.81824 8.86353V15.1363Z" fill="white"/>
</g>
<defs>
<clipPath id="clip0_1432_8831">
<rect width="24" height="24" fill="white"/>
</clipPath>
</defs>
</svg>
